X: 1
T: The Day We Paid the Rent
T: Betty Pringle's Pig, North End Reel
P: piffero primo a0448
O: O'Neill
%R: reel
F: http://ancients.sudburymuster.org/mus/ssp/pdf/emptypC0.pdf
Z: 2020 John Chambers <jc:trillian.mit.edu>
M: 2/4
L: 1/16
K: G
ge |:\
dGBG dGBe | dGBG FGAe | dGBG dGBd |[1,3 efga bage :|
[2,4 efga bgg2 ::\
bagf gdBd | egdB BAA2 | bagf gdBd | egfa g2ga |
bagf gdBd | egdB bAAc | BGdG eGdG |[1 egfa g4 :|[2 egfa g2 |]

% %sep 1 1 200
% %center - - - - - - - - - -
% Whatever we want at the bottom of each set belongs here.
